!!!SOCIAL_FUNCTION:	songs used in treatment of the sick
!!!PDT:	1918

Specific Region: Dakotas, Minnesota, Montana, Nebraska
!!!REG: Dakotas and Montana
!!!LING_GROUP: Siouan
!!!LANG: Tone
!!!OTL@ENG: May This Be the Day
!!!ONM: No. 94
**kern
*Imale
*clefF4
*k[f#c#g#d#a#]
*M2/4
*MM176
4d#
4d#
4d#
=
2.d#
=
4c#
4c#
4c#
=
2.c#
=1||
*M2/4
4B
4B
=2
[2B
=3
2B]
=4||
*M3/4
4B
4d#
4d#
=5
2.d#
=6
4c#
4c#
4c#
=7
2.c#
=8||
*M2/4
4B
4B
=9
[2B
=10
2B]
=11
4B
4B
=12
4B
4B
=13||
*M3/4
4c#
4c#
4c#
=14||
*M2/4
4B
4G#
=15||
*M3/4
4B
4B
4B
=16
2.c#
=17
4B
4B
4B
=18
2.B
=19||
*M2/4
4F#
4F#
=20
[2F#
=21
2F#]
=22||
*M3/4
4B
4c#
4c#
=23
2.c#
=24
4B
4B
4B
=25
2.B
=26||
*M2/4
4F#
4F#
=27
[2F#
=28
2F#]
=29||
*M3/4
4D#
4D#
4D#
=30
2.D#
=31
4C#
4C#
4C#
=32
2.C#
=33||
*M2/4
4BB
4BB
=34
[2BB
=35
2BB]
=36||
*M3/4
4C#
4C#
4C#
=37
2.C#
=38
4BB
4BB
4BB
=39
2.BB
=40||
*M2/4
4BB
4BB
=41
[2BB
=42
2BB]
==
*-
!!!CNT: Native American -- Sioux
!!!MRD: 1911/07//-1914///
!!!OCL: Frances Densmore
!!!YOR1: Teton Sioux Music, Bulletin 61,
!!!YOR2: Bureau of American Ethnology, Smithsonian Institution
!!!PPR: Government Printing Office
!!!PPP: Washington, D.C.
!!!PDT: 1918///
!!!ENC: Craig Stuart Sapp
!!!END: 2002/03/25/
!!!EEV: 2002/03/31/
!!!AGN: Song of Personal Dreams/Song Used in Treatment of the Sick
!!!MPN@@SIO: Waha'chungka-nong'pa
!!!MPN@ENG: Two Shields
!!!TXO: Teton Sioux
!!!MLC: Standing Rock Reservation, South Dakota, United States of America
!!!ARL: 45.9/-100.7#
!!!catalog: Catalogue No. 540
!!!PPG: 277
!!!EFL: 94/245
!!!VTS: 3872020153
